TileServer und Tiles/svg/9/3_14.svg

<?xml version='1.0' encoding='UTF-8' standalone='no'?>
<svg xmlns="http://www.w3.org/2000/svg" width="497pt" viewBox="0 0 497 279" xmlns:xlink="http://www.w3.org/1999/xlink" height="279pt">
 <defs style="stroke:none;" overflow="visible">
  <path id="glyph0-8" d="M 4.015625 -5.359375 L 4.984375 -5.359375 L 2.6875 -2.78125 L 5.171875 0 L 4.15625 0 L 1.734375 -2.71875 L 1.734375 0 L 0.84375 0 L 0.84375 -5.359375 L 1.734375 -5.359375 L 1.734375 -2.765625 Z M 4.015625 -5.359375 "/>
  <path id="glyph0-7" d="M 3 0.09375 C 2.53125 0.09375 2.109375 0 1.734375 -0.1875 C 1.367188 -0.382812 1.078125 -0.6875 0.859375 -1.09375 C 0.648438 -1.5 0.546875 -2.019531 0.546875 -2.65625 C 0.546875 -3.3125 0.65625 -3.84375 0.875 -4.25 C 1.09375 -4.664062 1.390625 -4.96875 1.765625 -5.15625 C 2.148438 -5.351562 2.582031 -5.453125 3.0625 -5.453125 C 3.332031 -5.453125 3.59375 -5.425781 3.84375 -5.375 C 4.101562 -5.320312 4.3125 -5.253906 4.46875 -5.171875 L 4.203125 -4.4375 C 4.035156 -4.5 3.84375 -4.554688 3.625 -4.609375 C 3.414062 -4.660156 3.222656 -4.6875 3.046875 -4.6875 C 1.984375 -4.6875 1.453125 -4.007812 1.453125 -2.65625 C 1.453125 -2.007812 1.582031 -1.515625 1.84375 -1.171875 C 2.101562 -0.828125 2.484375 -0.65625 2.984375 -0.65625 C 3.285156 -0.65625 3.546875 -0.6875 3.765625 -0.75 C 3.984375 -0.8125 4.1875 -0.882812 4.375 -0.96875 L 4.375 -0.1875 C 4.195312 -0.09375 4 -0.0234375 3.78125 0.015625 C 3.5625 0.0664062 3.300781 0.09375 3 0.09375 Z M 3 0.09375 "/>
  <path id="glyph0-6" d="M 3.40625 -5.453125 C 4.0625 -5.453125 4.585938 -5.222656 4.984375 -4.765625 C 5.390625 -4.304688 5.59375 -3.613281 5.59375 -2.6875 C 5.59375 -1.769531 5.390625 -1.078125 4.984375 -0.609375 C 4.585938 -0.140625 4.054688 0.09375 3.390625 0.09375 C 2.972656 0.09375 2.628906 0.015625 2.359375 -0.140625 C 2.085938 -0.296875 1.878906 -0.476562 1.734375 -0.6875 L 1.671875 -0.6875 C 1.679688 -0.570312 1.691406 -0.425781 1.703125 -0.25 C 1.722656 -0.0703125 1.734375 0.078125 1.734375 0.203125 L 1.734375 2.40625 L 0.84375 2.40625 L 0.84375 -5.359375 L 1.5625 -5.359375 L 1.6875 -4.625 L 1.734375 -4.625 C 1.890625 -4.863281 2.097656 -5.0625 2.359375 -5.21875 C 2.617188 -5.375 2.96875 -5.453125 3.40625 -5.453125 Z M 3.234375 -4.71875 C 2.691406 -4.71875 2.304688 -4.5625 2.078125 -4.25 C 1.859375 -3.945312 1.742188 -3.484375 1.734375 -2.859375 L 1.734375 -2.6875 C 1.734375 -2.03125 1.835938 -1.519531 2.046875 -1.15625 C 2.265625 -0.800781 2.671875 -0.625 3.265625 -0.625 C 3.585938 -0.625 3.851562 -0.710938 4.0625 -0.890625 C 4.269531 -1.078125 4.425781 -1.320312 4.53125 -1.625 C 4.632812 -1.9375 4.6875 -2.296875 4.6875 -2.703125 C 4.6875 -3.316406 4.566406 -3.804688 4.328125 -4.171875 C 4.097656 -4.535156 3.734375 -4.71875 3.234375 -4.71875 Z M 3.234375 -4.71875 "/>
  <path id="glyph0-5" d="M 4.125 -5.359375 L 4.125 -4.625 L 1.734375 -4.625 L 1.734375 0 L 0.84375 0 L 0.84375 -5.359375 Z M 4.125 -5.359375 "/>
  <path id="glyph0-4" d="M 1.6875 -5.359375 L 1.6875 -2.09375 C 1.6875 -2.007812 1.679688 -1.882812 1.671875 -1.71875 C 1.660156 -1.5625 1.648438 -1.40625 1.640625 -1.25 C 1.628906 -1.09375 1.625 -0.96875 1.625 -0.875 L 4.484375 -5.359375 L 5.5625 -5.359375 L 5.5625 0 L 4.75 0 L 4.75 -3.15625 C 4.75 -3.257812 4.75 -3.398438 4.75 -3.578125 C 4.757812 -3.753906 4.765625 -3.925781 4.765625 -4.09375 C 4.773438 -4.257812 4.785156 -4.390625 4.796875 -4.484375 L 1.9375 0 L 0.84375 0 L 0.84375 -5.359375 Z M 1.6875 -5.359375 "/>
  <path id="glyph0-3" d="M 4.9375 0 L 4.046875 0 L 4.046875 -4.625 L 2.453125 -4.625 C 2.367188 -3.5 2.25 -2.59375 2.09375 -1.90625 C 1.945312 -1.21875 1.742188 -0.71875 1.484375 -0.40625 C 1.234375 -0.09375 0.914062 0.0625 0.53125 0.0625 C 0.445312 0.0625 0.363281 0.0546875 0.28125 0.046875 C 0.195312 0.046875 0.125 0.03125 0.0625 0 L 0.0625 -0.65625 C 0.101562 -0.644531 0.144531 -0.632812 0.1875 -0.625 C 0.238281 -0.625 0.289062 -0.625 0.34375 -0.625 C 0.695312 -0.625 0.984375 -1.003906 1.203125 -1.765625 C 1.421875 -2.535156 1.585938 -3.734375 1.703125 -5.359375 L 4.9375 -5.359375 Z M 4.9375 0 "/>
  <path id="glyph0-2" d="M 5.515625 -2.6875 C 5.515625 -1.800781 5.285156 -1.113281 4.828125 -0.625 C 4.378906 -0.144531 3.773438 0.09375 3.015625 0.09375 C 2.535156 0.09375 2.109375 -0.0078125 1.734375 -0.21875 C 1.367188 -0.4375 1.078125 -0.753906 0.859375 -1.171875 C 0.648438 -1.585938 0.546875 -2.09375 0.546875 -2.6875 C 0.546875 -3.570312 0.769531 -4.253906 1.21875 -4.734375 C 1.664062 -5.210938 2.273438 -5.453125 3.046875 -5.453125 C 3.523438 -5.453125 3.945312 -5.34375 4.3125 -5.125 C 4.6875 -4.914062 4.976562 -4.601562 5.1875 -4.1875 C 5.40625 -3.78125 5.515625 -3.28125 5.515625 -2.6875 Z M 1.453125 -2.6875 C 1.453125 -2.050781 1.578125 -1.546875 1.828125 -1.171875 C 2.078125 -0.804688 2.476562 -0.625 3.03125 -0.625 C 3.570312 -0.625 3.96875 -0.804688 4.21875 -1.171875 C 4.46875 -1.546875 4.59375 -2.050781 4.59375 -2.6875 C 4.59375 -3.320312 4.46875 -3.816406 4.21875 -4.171875 C 3.96875 -4.535156 3.566406 -4.71875 3.015625 -4.71875 C 2.472656 -4.71875 2.078125 -4.535156 1.828125 -4.171875 C 1.578125 -3.816406 1.453125 -3.320312 1.453125 -2.6875 Z M 1.453125 -2.6875 "/>
  <path id="glyph0-1" d="M 4.03125 -6.453125 C 3.257812 -6.453125 2.65625 -6.191406 2.21875 -5.671875 C 1.78125 -5.160156 1.5625 -4.457031 1.5625 -3.5625 C 1.5625 -2.675781 1.765625 -1.972656 2.171875 -1.453125 C 2.585938 -0.941406 3.203125 -0.6875 4.015625 -0.6875 C 4.328125 -0.6875 4.625 -0.710938 4.90625 -0.765625 C 5.1875 -0.816406 5.460938 -0.882812 5.734375 -0.96875 L 5.734375 -0.1875 C 5.460938 -0.09375 5.1875 -0.0234375 4.90625 0.015625 C 4.625 0.0664062 4.285156 0.09375 3.890625 0.09375 C 3.160156 0.09375 2.550781 -0.0507812 2.0625 -0.34375 C 1.582031 -0.644531 1.21875 -1.070312 0.96875 -1.625 C 0.726562 -2.175781 0.609375 -2.828125 0.609375 -3.578125 C 0.609375 -4.296875 0.738281 -4.929688 1 -5.484375 C 1.269531 -6.035156 1.660156 -6.460938 2.171875 -6.765625 C 2.679688 -7.078125 3.304688 -7.234375 4.046875 -7.234375 C 4.796875 -7.234375 5.453125 -7.09375 6.015625 -6.8125 L 5.65625 -6.0625 C 5.425781 -6.15625 5.175781 -6.242188 4.90625 -6.328125 C 4.644531 -6.410156 4.351562 -6.453125 4.03125 -6.453125 Z M 4.03125 -6.453125 "/>
  <path id="glyph0-0" d="M 0.9375 0 L 0.9375 -7.140625 L 5.046875 -7.140625 L 5.046875 0 Z M 1.453125 -0.515625 L 4.546875 -0.515625 L 4.546875 -6.625 L 1.453125 -6.625 Z M 1.453125 -0.515625 "/>
 </defs>
 <image width="497" xlink:href="svg/9/3_14.jpg" height="279"/>
 <g>
  <path d="M 245.3125 176.175781 C 244.539062 176.175781 243.9375 176.4375 243.5 176.957031 C 243.0625 177.46875 242.84375 178.171875 242.84375 179.066406 C 242.84375 179.953125 243.046875 180.65625 243.453125 181.175781 C 243.867188 181.6875 244.484375 181.941406 245.296875 181.941406 C 245.609375 181.941406 245.90625 181.917969 246.1875 181.863281 C 246.46875 181.8125 246.742188 181.746094 247.015625 181.660156 L 247.015625 182.441406 C 246.742188 182.535156 246.46875 182.605469 246.1875 182.644531 C 245.90625 182.695312 245.566406 182.722656 245.171875 182.722656 C 244.441406 182.722656 243.832031 182.578125 243.34375 182.285156 C 242.863281 181.984375 242.5 181.558594 242.25 181.003906 C 242.007812 180.453125 241.890625 179.800781 241.890625 179.050781 C 241.890625 178.332031 242.019531 177.699219 242.28125 177.144531 C 242.550781 176.59375 242.941406 176.167969 243.453125 175.863281 C 243.960938 175.550781 244.585938 175.394531 245.328125 175.394531 C 246.078125 175.394531 246.734375 175.535156 247.296875 175.816406 L 246.9375 176.566406 C 246.707031 176.472656 246.457031 176.386719 246.1875 176.300781 C 245.925781 176.21875 245.632812 176.175781 245.3125 176.175781 Z M 245.3125 176.175781 " transform=" rotate(  340 267.344 179.628) " style="fill:none;stroke-width:3;stroke-linecap:butt;stroke-linejoin:round;stroke:rgb(100%,100%,100%);stroke-opacity:0.6;stroke-miterlimit:10;"/>
  <path d="M 253.113281 179.941406 C 253.113281 180.828125 252.882812 181.515625 252.425781 182.003906 C 251.976562 182.484375 251.371094 182.722656 250.613281 182.722656 C 250.132812 182.722656 249.707031 182.621094 249.332031 182.410156 C 248.964844 182.191406 248.675781 181.875 248.457031 181.457031 C 248.246094 181.042969 248.144531 180.535156 248.144531 179.941406 C 248.144531 179.058594 248.367188 178.375 248.816406 177.894531 C 249.261719 177.417969 249.871094 177.175781 250.644531 177.175781 C 251.121094 177.175781 251.542969 177.285156 251.910156 177.503906 C 252.285156 177.714844 252.574219 178.027344 252.785156 178.441406 C 253.003906 178.847656 253.113281 179.347656 253.113281 179.941406 Z M 249.050781 179.941406 C 249.050781 180.578125 249.175781 181.082031 249.425781 181.457031 C 249.675781 181.824219 250.074219 182.003906 250.628906 182.003906 C 251.167969 182.003906 251.566406 181.824219 251.816406 181.457031 C 252.066406 181.082031 252.191406 180.578125 252.191406 179.941406 C 252.191406 179.308594 252.066406 178.8125 251.816406 178.457031 C 251.566406 178.09375 251.164062 177.910156 250.613281 177.910156 C 250.070312 177.910156 249.675781 178.09375 249.425781 178.457031 C 249.175781 178.8125 249.050781 179.308594 249.050781 179.941406 Z M 249.050781 179.941406 " transform=" rotate(  340 267.344 179.628) " style="fill:none;stroke-width:3;stroke-linecap:butt;stroke-linejoin:round;stroke:rgb(100%,100%,100%);stroke-opacity:0.6;stroke-miterlimit:10;"/>
  <path d="M 258.585938 182.628906 L 257.695312 182.628906 L 257.695312 178.003906 L 256.101562 178.003906 C 256.015625 179.128906 255.898438 180.035156 255.742188 180.722656 C 255.59375 181.410156 255.390625 181.910156 255.132812 182.222656 C 254.882812 182.535156 254.5625 182.691406 254.179688 182.691406 C 254.09375 182.691406 254.011719 182.683594 253.929688 182.675781 C 253.84375 182.675781 253.773438 182.660156 253.710938 182.628906 L 253.710938 181.972656 C 253.75 181.984375 253.792969 181.996094 253.835938 182.003906 C 253.886719 182.003906 253.9375 182.003906 253.992188 182.003906 C 254.34375 182.003906 254.632812 181.625 254.851562 180.863281 C 255.070312 180.09375 255.234375 178.894531 255.351562 177.269531 L 258.585938 177.269531 Z M 258.585938 182.628906 " transform=" rotate(  340 267.344 179.628) " style="fill:none;stroke-width:3;stroke-linecap:butt;stroke-linejoin:round;stroke:rgb(100%,100%,100%);stroke-opacity:0.6;stroke-miterlimit:10;"/>
  <path d="M 261.117188 177.269531 L 261.117188 180.535156 C 261.117188 180.621094 261.109375 180.746094 261.101562 180.910156 C 261.089844 181.066406 261.078125 181.222656 261.070312 181.378906 C 261.058594 181.535156 261.054688 181.660156 261.054688 181.753906 L 263.914062 177.269531 L 264.992188 177.269531 L 264.992188 182.628906 L 264.179688 182.628906 L 264.179688 179.472656 C 264.179688 179.371094 264.179688 179.230469 264.179688 179.050781 C 264.1875 178.875 264.195312 178.703125 264.195312 178.535156 C 264.203125 178.371094 264.214844 178.238281 264.226562 178.144531 L 261.367188 182.628906 L 260.273438 182.628906 L 260.273438 177.269531 Z M 261.117188 177.269531 " transform=" rotate(  340 267.344 179.628) " style="fill:none;stroke-width:3;stroke-linecap:butt;stroke-linejoin:round;stroke:rgb(100%,100%,100%);stroke-opacity:0.6;stroke-miterlimit:10;"/>
  <path d="M 269.984375 177.269531 L 269.984375 178.003906 L 267.59375 178.003906 L 267.59375 182.628906 L 266.703125 182.628906 L 266.703125 177.269531 Z M 269.984375 177.269531 " transform=" rotate(  340 267.344 179.628) " style="fill:none;stroke-width:3;stroke-linecap:butt;stroke-linejoin:round;stroke:rgb(100%,100%,100%);stroke-opacity:0.6;stroke-miterlimit:10;"/>
  <path d="M 275.605469 179.941406 C 275.605469 180.828125 275.375 181.515625 274.917969 182.003906 C 274.46875 182.484375 273.863281 182.722656 273.105469 182.722656 C 272.625 182.722656 272.199219 182.621094 271.824219 182.410156 C 271.457031 182.191406 271.167969 181.875 270.949219 181.457031 C 270.738281 181.042969 270.636719 180.535156 270.636719 179.941406 C 270.636719 179.058594 270.859375 178.375 271.308594 177.894531 C 271.753906 177.417969 272.363281 177.175781 273.136719 177.175781 C 273.613281 177.175781 274.035156 177.285156 274.402344 177.503906 C 274.777344 177.714844 275.066406 178.027344 275.277344 178.441406 C 275.496094 178.847656 275.605469 179.347656 275.605469 179.941406 Z M 271.542969 179.941406 C 271.542969 180.578125 271.667969 181.082031 271.917969 181.457031 C 272.167969 181.824219 272.566406 182.003906 273.121094 182.003906 C 273.660156 182.003906 274.058594 181.824219 274.308594 181.457031 C 274.558594 181.082031 274.683594 180.578125 274.683594 179.941406 C 274.683594 179.308594 274.558594 178.8125 274.308594 178.457031 C 274.058594 178.09375 273.65625 177.910156 273.105469 177.910156 C 272.5625 177.910156 272.167969 178.09375 271.917969 178.457031 C 271.667969 178.8125 271.542969 179.308594 271.542969 179.941406 Z M 271.542969 179.941406 " transform=" rotate(  340 267.344 179.628) " style="fill:none;stroke-width:3;stroke-linecap:butt;stroke-linejoin:round;stroke:rgb(100%,100%,100%);stroke-opacity:0.6;stroke-miterlimit:10;"/>
  <path d="M 279.546875 177.175781 C 280.203125 177.175781 280.726562 177.40625 281.125 177.863281 C 281.53125 178.324219 281.734375 179.015625 281.734375 179.941406 C 281.734375 180.859375 281.53125 181.550781 281.125 182.019531 C 280.726562 182.488281 280.195312 182.722656 279.53125 182.722656 C 279.113281 182.722656 278.769531 182.644531 278.5 182.488281 C 278.226562 182.332031 278.019531 182.152344 277.875 181.941406 L 277.8125 181.941406 C 277.820312 182.058594 277.832031 182.203125 277.84375 182.378906 C 277.863281 182.558594 277.875 182.707031 277.875 182.832031 L 277.875 185.035156 L 276.984375 185.035156 L 276.984375 177.269531 L 277.703125 177.269531 L 277.828125 178.003906 L 277.875 178.003906 C 278.03125 177.765625 278.238281 177.566406 278.5 177.410156 C 278.757812 177.253906 279.109375 177.175781 279.546875 177.175781 Z M 279.375 177.910156 C 278.832031 177.910156 278.445312 178.066406 278.21875 178.378906 C 278 178.683594 277.882812 179.144531 277.875 179.769531 L 277.875 179.941406 C 277.875 180.597656 277.976562 181.109375 278.1875 181.472656 C 278.40625 181.828125 278.8125 182.003906 279.40625 182.003906 C 279.726562 182.003906 279.992188 181.917969 280.203125 181.738281 C 280.410156 181.550781 280.566406 181.308594 280.671875 181.003906 C 280.773438 180.691406 280.828125 180.332031 280.828125 179.925781 C 280.828125 179.3125 280.707031 178.824219 280.46875 178.457031 C 280.238281 178.09375 279.875 177.910156 279.375 177.910156 Z M 279.375 177.910156 " transform=" rotate(  340 267.344 179.628) " style="fill:none;stroke-width:3;stroke-linecap:butt;stroke-linejoin:round;stroke:rgb(100%,100%,100%);stroke-opacity:0.6;stroke-miterlimit:10;"/>
  <path d="M 285.289062 182.722656 C 284.820312 182.722656 284.398438 182.628906 284.023438 182.441406 C 283.65625 182.246094 283.367188 181.941406 283.148438 181.535156 C 282.9375 181.128906 282.835938 180.609375 282.835938 179.972656 C 282.835938 179.316406 282.945312 178.785156 283.164062 178.378906 C 283.382812 177.964844 283.679688 177.660156 284.054688 177.472656 C 284.4375 177.277344 284.871094 177.175781 285.351562 177.175781 C 285.621094 177.175781 285.882812 177.203125 286.132812 177.253906 C 286.390625 177.308594 286.601562 177.375 286.757812 177.457031 L 286.492188 178.191406 C 286.324219 178.128906 286.132812 178.074219 285.914062 178.019531 C 285.703125 177.96875 285.511719 177.941406 285.335938 177.941406 C 284.273438 177.941406 283.742188 178.621094 283.742188 179.972656 C 283.742188 180.621094 283.871094 181.113281 284.132812 181.457031 C 284.390625 181.800781 284.773438 181.972656 285.273438 181.972656 C 285.574219 181.972656 285.835938 181.941406 286.054688 181.878906 C 286.273438 181.816406 286.476562 181.746094 286.664062 181.660156 L 286.664062 182.441406 C 286.484375 182.535156 286.289062 182.605469 286.070312 182.644531 C 285.851562 182.695312 285.589844 182.722656 285.289062 182.722656 Z M 285.289062 182.722656 " transform=" rotate(  340 267.344 179.628) " style="fill:none;stroke-width:3;stroke-linecap:butt;stroke-linejoin:round;stroke:rgb(100%,100%,100%);stroke-opacity:0.6;stroke-miterlimit:10;"/>
  <path d="M 291.105469 177.269531 L 292.074219 177.269531 L 289.777344 179.847656 L 292.261719 182.628906 L 291.246094 182.628906 L 288.824219 179.910156 L 288.824219 182.628906 L 287.933594 182.628906 L 287.933594 177.269531 L 288.824219 177.269531 L 288.824219 179.863281 Z M 291.105469 177.269531 " transform=" rotate(  340 267.344 179.628) " style="fill:none;stroke-width:3;stroke-linecap:butt;stroke-linejoin:round;stroke:rgb(100%,100%,100%);stroke-opacity:0.6;stroke-miterlimit:10;"/>
  <g transform=" rotate(  340 267.344 179.628) " style="fill:rgb(13.333333%,13.333333%,13.333333%);fill-opacity:1;">
   <use xlink:href="#glyph0-1" y="182.628161" x="241.279365"/>
   <use xlink:href="#glyph0-2" y="182.628161" x="247.599365"/>
   <use xlink:href="#glyph0-3" y="182.628161" x="253.649365"/>
   <use xlink:href="#glyph0-4" y="182.628161" x="259.429365"/>
   <use xlink:href="#glyph0-5" y="182.628161" x="265.859365"/>
   <use xlink:href="#glyph0-2" y="182.628161" x="270.089365"/>
   <use xlink:href="#glyph0-6" y="182.628161" x="276.139365"/>
   <use xlink:href="#glyph0-7" y="182.628161" x="282.289365"/>
   <use xlink:href="#glyph0-8" y="182.628161" x="287.089365"/>
  </g>
 </g>
</svg>

<svg xmlns="http://www.w3.org/2000/svg" xmlns:xlink="http://www.w3.org/1999/xlink" viewBox="0 0 497 279"> <defs overflow="visible" style="stroke:none">  <path id="h" d="M4-5.4h1L2.7-2.8 5.2 0h-1L1.7-2.7V0H.8v-5.4h1v2.6Zm0 0"/>  <path id="g" d="M3 0c-.5 0-.9 0-1.3-.1-.3-.3-.6-.6-.7-.9-.4-.5-.5-1-.5-1.7 0-.6.2-1.1.5-1.5 0-.6.4-.8.8-1.1.2-.1.8-.2 1.2-.2l.8.1.7.2-.3.8-.6-.2H3c-1-.1-1.5.6-1.5 1.9 0 .7 0 1 .3 1.4.3.5.7.6 1.2.6h.8l.6-.3v.8a2 2 0 0 1-.6.2H3Zm0 0"/>  <path id="f" d="M3.4-5.5c.7 0 1.2.3 1.6.7.4.5.6 1.2.6 2.1 0 1-.2 1.7-.6 2-.4.7-1 .9-1.6.9-.4-.2-.8-.2-1-.3l-.7-.6v3.1H.8v-7.8h.8v.8h.2c.2-.4.3-.5.6-.6.2-.2.6-.3 1-.3Zm-.2.8c-.5 0-.9.1-1.1.5-.2.2-.4.7-.4 1.2v.3c0 .7.1 1.2.3 1.5.3.4.7.6 1.3.6.3 0 .6-.1.7-.4l.5-.6.2-1.1c0-.6-.1-1.1-.4-1.5-.2-.3-.6-.5-1-.5Zm0 0"/>  <path id="e" d="M4.1-5.4v.8H1.7V0H.8v-5.4Zm0 0"/>  <path id="d" d="M1.7-5.4v3.7a18.9 18.9 0 0 0 0 .7l2.7-4.4h1.1V0h-.7v-4.1l.1-.4-3 4.5H1v-5.4Zm0 0"/>  <path id="c" d="M5 0H4v-4.6H2.5L2-2 1.5-.4c-.3.3-.6.4-1 .4H0v-.7h.4c.3.1.6-.3.8-.9.2-1 .4-2.2.5-3.9h3.2Zm0 0"/>  <path id="b" d="M5.5-2.7c0 .9-.2 1.7-.7 2-.4.7-1 .9-1.8.9-.5-.2-.9-.2-1.3-.4-.3-.2-.6-.6-.7-1C.6-1.6.5-2 .5-2.7c0-.9.3-1.6.7-2 .5-.5 1-.8 1.8-.8.5 0 1 .2 1.3.5.4 0 .7.4.9.9.2.2.3.7.3 1.3Zm-4 0c0 .7 0 1.2.3 1.5.3.4.7.6 1.2.6.6 0 1-.2 1.2-.6.3-.3.4-.8.4-1.5s-.1-1.1-.4-1.5c-.2-.3-.6-.5-1.2-.5-.5 0-1 .2-1.2.5-.2.4-.3.9-.3 1.5Zm0 0"/>  <path id="a" d="M4-6.5c-.7 0-1.3.3-1.8.8-.4.5-.6 1.2-.6 2.1 0 1 .2 1.6.6 2.1.4.6 1 .8 1.8.8h1l.6-.3v.8L5 0H4c-.8 0-1.4 0-2-.2a2.8 2.8 0 0 1-1-1.4c-.3-.6-.4-1.2-.4-2 0-.7.1-1.3.4-1.9a3 3 0 0 1 1.2-1.3c.5-.2 1.1-.4 1.8-.4.8 0 1.5.1 2 .4l-.3.7-.8-.2a3 3 0 0 0-.9-.2Zm0 0"/>  <path d="M1 0v-7.1h4V0Zm.4-.5h3.1v-6.1h-3Zm.1 0"/> </defs> <image xlink:href="svg/9/3_14.jpg" width="497" height="279"/> <path d="M245.3 176.2c-.8 0-1.3.2-1.8.8-.4.5-.7 1.2-.7 2 0 1 .2 1.8.7 2.3.4.4 1 .6 1.8.6h.9l.8-.2v.7l-.8.2-1 .1c-.8 0-1.4-.1-1.9-.4a2.8 2.8 0 0 1-1-1.3c-.3-.5-.5-1.2-.5-2 .1-.6.2-1.2.5-1.8a3 3 0 0 1 1.2-1.2c.5-.4 1-.6 1.8-.6s1.4.1 2 .4l-.4.8-.7-.3a3 3 0 0 0-.9-.1Zm7.8 3.8c0 .7-.1 1.4-.7 2-.4.5-1 .7-1.8.7-.5 0-.9 0-1.3-.3-.3-.2-.6-.4-.8-1-.3-.4-.5-.8-.5-1.4.1-.9.4-1.6.8-2 .5-.6 1-.8 1.8-.8.5 0 1 0 1.4.3.3.2.6.5.8 1 .2.2.2.7.2 1.3Zm-4 0c-.1.5-.1 1 .3 1.4.3.4.7.6 1.2.6.6 0 1-.2 1.2-.5.3-.5.4-1 .4-1.6 0-.6-.2-.9-.4-1.4-.2-.5-.6-.6-1.2-.6-.5.1-1 .2-1.2.6-.2.3-.3.8-.3 1.4Zm9.5 2.6h-.9V178h-1.6c0 1.1-.2 2-.4 2.7-.1.7-.3 1.3-.6 1.5-.1.3-.5.5-1 .5h-.3v-.7h.2c.3 0 .6-.4.9-1.1l.5-3.6h3.2Zm2.5-5.3v4.5l2.8-4.5h1.1v5.3h-.7v-4.5l-2.9 4.5h-1.1v-5.3Zm8.9 0v.7h-2.4v4.6h-.9v-5.3Zm5.6 2.7c0 .7-.2 1.4-.6 2-.5.5-1 .7-1.9.7-.5 0-.9 0-1.3-.3-.3-.2-.6-.4-.8-1-.3-.4-.4-.8-.4-1.4 0-.9.4-1.6.7-2 .5-.6 1-.8 1.8-.8.5 0 1 0 1.3.3.4.2.7.5.9 1 .2.2.3.7.3 1.3Zm-4 0c-.1.5-.1 1 .2 1.4.4.4.8.6 1.3.6.6 0 1-.2 1.2-.5.3-.5.4-1 .4-1.6 0-.6-.1-.9-.4-1.4-.2-.5-.6-.6-1.2-.6-.5.1-1 .2-1.1.6-.3.3-.5.8-.5 1.4Zm7.9-2.8c.7 0 1.2.2 1.6.7.4.4.6 1.1.6 2 0 1.1-.2 1.7-.6 2.1-.4.5-.9.7-1.6.7-.4 0-.7 0-1-.2-.3-.2-.5-.3-.6-.6v3.1h-1v-7.7h.9v.7l.8-.6.9-.2Zm-.1.7c-.6.1-1 .2-1.2.5-.2.3-.2.6-.2 1.4v.1c-.1.7-.1 1.2.2 1.6.2.3.6.5 1.2.5.3 0 .6 0 .8-.3.2-.1.4-.4.5-.7l.1-1c0-.8 0-1.3-.3-1.6-.3-.4-.6-.5-1.1-.5Zm5.9 4.8c-.5 0-.9 0-1.3-.3l-.9-.9c-.1-.4-.3-.9-.3-1.5 0-.7.2-1.2.4-1.6.2-.4.5-.7.8-1l1.4-.1h.6l.8.3-.3.6-.6-.2h-.6c-1 0-1.6.5-1.6 2 0 .6.3 1 .4 1.5.3.3.7.5 1.2.5l.7-.1.7-.2v.7a2 2 0 0 1-.7.2l-.7.1Zm5.8-5.4h1l-2.3 2.5 2.5 2.8h-1l-2.6-2.6v2.6h-.7v-5.3h1v2.6Zm0 0" style="fill:none;stroke-width:3;stroke-linecap:butt;stroke-linejoin:round;stroke:#fff;stroke-opacity:.6;stroke-miterlimit:10" transform=" rotate(  340 267.344 179.628) "/> <g style="fill:#222;fill-opacity:1" transform=" rotate(  340 267.344 179.628) ">  <use xlink:href="#a" x="241.3" y="182.6"/>  <use xlink:href="#b" x="247.6" y="182.6"/>  <use xlink:href="#c" x="253.6" y="182.6"/>  <use xlink:href="#d" x="259.4" y="182.6"/>  <use xlink:href="#e" x="265.9" y="182.6"/>  <use xlink:href="#b" x="270.1" y="182.6"/>  <use xlink:href="#f" x="276.1" y="182.6"/>  <use xlink:href="#g" x="282.3" y="182.6"/>  <use xlink:href="#h" x="287.1" y="182.6"/> </g></svg>
